X: 0
T: Geborn is uns ein Kindelein
Z: Melody of 15th Century
Z: Copyright © 2004 by Douglas D. Anderson
Z: Released To The Public Domain
L: 1/4
M: 3/4
Q: 1/4=125
V: P1 name="Staff"
%%MIDI program 1 19
K: D
[V: P1]  d d d | (d B) B | (d c) B | d2 B | d2 e | (f e) d | (c A) B | c2 B | c2 d | B2 A | A2 G | F2 E | F2 A | E2 F | (D B,) C | D2"^Refrain" D | (F G) A | (G F) E | (F G) A | (G F) E | F2 A | E2 F | (D B,) C | D2|]
w: To us is born_ a lit-_ tle Child Of Ma- ry, maid-_ en mo-_ ther mild, Yule tide a mer- ry sea- son is, Babe Je- sus our de- light_ and bliss. O Je-_ sus dar-_ ling of_ my heart,_ How rich in mer- cy, Babe_ Thou art!

